svgs/sharp-regular/video-slash.svg

<svg xmlns="http://www.w3.org/2000/svg" viewBox="0 0 640 512"><!--! Font Awesome Pro 6.6.0 by @fontawesome - https://fontawesome.com License - https://fontawesome.com/license (Commercial License) Copyright 2024 Fonticons, Inc. --><path d="M29.4 .1l19 14.7L111.8 64 368 64l48 0 0 48 0 48 0 128 0 12.2L560 412l0-41.7 0-18.3 0-64 0-146.3-112 56 0-53.7L560 88l48-24 0 53.7L608 352l0 42.3 0 53.7 0 1.3 12.9 10 19 14.7-29.4 37.9-19-14.7L19 52.7 0 38 29.4 .1zM368 262.9L368 112l-194.4 0L368 262.9zM416 440l0 8-48 0L80 448l-48 0 0-48 0-278.8L80 159l0 241 288 0 0-14.1 48 37.8 0 16.2z"/></svg>

<svg xmlns="http://www.w3.org/2000/svg" viewBox="0 0 640 512"><!--! Font Awesome Pro 6.4.2 by @fontawesome - https://fontawesome.com License - https://fontawesome.com/license (Commercial License) Copyright 2023 Fonticons, Inc. --><path d="M29.4 .1l19 14.7L111.8 64H368h48v48 48V288v12.2L560 412V370.3 352 288 141.7l-112 56V144L560 88l48-24v53.7V352v42.3V448v1.3l12.9 10 19 14.7-29.4 37.9-19-14.7L19 52.7 0 38 29.4 .1zM368 262.9V112H173.6L368 262.9zM416 440v8H368 80 32V400 121.2L80 159V400H368V385.9l48 37.8V440z"/></svg>
